flaticon/technology/typewriter-1.svg

<svg xmlns="http://www.w3.org/2000/svg" width="32" height="32" viewBox="0 0 24 24">
    <path d="M 23.601562 8 C 23.378906 8 23.199219 8.179688 23.199219 8.398438 L 23.199219 10 L 22.800781 10 L 22.800781 9.765625 C 22.800781 9.230469 22.367188 8.800781 21.835938 8.800781 L 19.601562 8.800781 L 19.601562 0 L 4.398438 0 L 4.398438 8.800781 L 2.164062 8.800781 C 1.632812 8.800781 1.199219 9.230469 1.199219 9.765625 L 1.199219 10 L 0.800781 10 L 0.800781 8.398438 C 0.800781 8.179688 0.621094 8 0.398438 8 C 0.179688 8 0 8.179688 0 8.398438 L 0 12.398438 C 0 12.621094 0.179688 12.800781 0.398438 12.800781 C 0.621094 12.800781 0.800781 12.621094 0.800781 12.398438 L 0.800781 10.800781 L 1.199219 10.800781 L 1.199219 11.035156 C 1.199219 11.566406 1.632812 12 2.164062 12 L 2.398438 12 L 2.398438 13.601562 L 0.800781 13.601562 L 0.800781 15.601562 L 0.398438 15.601562 L 0.398438 16.398438 L 2 16.398438 L 2 15.601562 L 1.601562 15.601562 L 1.601562 14.398438 L 2.398438 14.398438 L 2.398438 18.398438 C 2.398438 19.144531 2.910156 19.765625 3.601562 19.941406 L 3.601562 22.554688 C 3.601562 23.351562 4.25 24 5.046875 24 L 18.953125 24 C 19.75 24 20.398438 23.351562 20.398438 22.554688 L 20.398438 19.941406 C 21.089844 19.765625 21.601562 19.144531 21.601562 18.398438 L 21.601562 12 L 21.835938 12 C 22.367188 12 22.800781 11.566406 22.800781 11.035156 L 22.800781 10.800781 L 23.199219 10.800781 L 23.199219 12.398438 C 23.199219 12.621094 23.378906 12.800781 23.601562 12.800781 C 23.820312 12.800781 24 12.621094 24 12.398438 L 24 8.398438 C 24 8.179688 23.820312 8 23.601562 8 Z M 5.199219 0.800781 L 18.800781 0.800781 L 18.800781 8.800781 L 5.199219 8.800781 Z M 19.601562 22.554688 C 19.601562 22.910156 19.308594 23.199219 18.953125 23.199219 L 5.046875 23.199219 C 4.691406 23.199219 4.398438 22.910156 4.398438 22.554688 L 4.398438 16 L 19.601562 16 Z M 20.800781 18.398438 C 20.800781 18.695312 20.640625 18.953125 20.398438 19.09375 L 20.398438 15.199219 L 3.601562 15.199219 L 3.601562 19.09375 C 3.359375 18.953125 3.199219 18.695312 3.199219 18.398438 L 3.199219 12 L 5.632812 12 C 5.632812 12.015625 5.628906 12.035156 5.628906 12.050781 C 5.621094 12.105469 5.613281 12.160156 5.609375 12.21875 C 5.605469 12.253906 5.605469 12.289062 5.605469 12.324219 C 5.601562 12.351562 5.601562 12.375 5.601562 12.398438 C 5.601562 12.425781 5.601562 12.449219 5.605469 12.472656 C 5.605469 12.507812 5.605469 12.546875 5.609375 12.582031 C 5.613281 12.636719 5.621094 12.695312 5.628906 12.75 C 5.632812 12.777344 5.636719 12.800781 5.640625 12.828125 C 5.652344 12.894531 5.667969 12.960938 5.6875 13.027344 C 5.6875 13.039062 5.691406 13.054688 5.695312 13.070312 C 5.695312 13.070312 5.699219 13.074219 5.699219 13.078125 C 5.734375 13.195312 5.777344 13.308594 5.828125 13.414062 C 5.835938 13.429688 5.839844 13.441406 5.847656 13.453125 C 6.238281 14.25 7.054688 14.800781 8 14.800781 L 16 14.800781 C 16.945312 14.800781 17.761719 14.25 18.152344 13.453125 C 18.160156 13.441406 18.164062 13.429688 18.171875 13.414062 C 18.222656 13.308594 18.265625 13.195312 18.300781 13.078125 C 18.300781 13.074219 18.304688 13.070312 18.304688 13.070312 C 18.308594 13.054688 18.308594 13.042969 18.3125 13.027344 C 18.332031 12.960938 18.347656 12.894531 18.359375 12.828125 C 18.363281 12.800781 18.367188 12.777344 18.371094 12.75 C 18.378906 12.691406 18.386719 12.636719 18.390625 12.582031 C 18.394531 12.542969 18.394531 12.507812 18.394531 12.472656 C 18.398438 12.449219 18.398438 12.425781 18.398438 12.398438 C 18.398438 12.375 18.398438 12.351562 18.394531 12.324219 C 18.394531 12.289062 18.394531 12.253906 18.390625 12.21875 C 18.386719 12.160156 18.378906 12.105469 18.371094 12.050781 C 18.371094 12.035156 18.367188 12.015625 18.367188 12 L 20.800781 12 Z M 6.816406 11.332031 C 6.851562 11.296875 6.886719 11.261719 6.921875 11.226562 C 6.953125 11.195312 6.992188 11.167969 7.027344 11.140625 C 7.0625 11.113281 7.09375 11.082031 7.132812 11.058594 C 7.199219 11.015625 7.273438 10.976562 7.347656 10.941406 C 7.378906 10.929688 7.414062 10.917969 7.445312 10.90625 C 7.503906 10.882812 7.5625 10.863281 7.625 10.847656 C 7.65625 10.84375 7.683594 10.835938 7.714844 10.828125 C 7.808594 10.8125 7.902344 10.800781 8 10.800781 L 16 10.800781 C 16.097656 10.800781 16.191406 10.8125 16.285156 10.828125 C 16.316406 10.835938 16.347656 10.84375 16.375 10.847656 C 16.4375 10.863281 16.496094 10.882812 16.554688 10.90625 C 16.585938 10.917969 16.621094 10.929688 16.652344 10.941406 C 16.726562 10.976562 16.800781 11.015625 16.867188 11.058594 C 16.90625 11.082031 16.9375 11.113281 16.972656 11.140625 C 17.011719 11.167969 17.046875 11.195312 17.078125 11.226562 C 17.117188 11.257812 17.148438 11.296875 17.183594 11.332031 C 17.207031 11.359375 17.234375 11.390625 17.257812 11.421875 C 17.289062 11.460938 17.320312 11.503906 17.347656 11.546875 C 17.367188 11.574219 17.378906 11.601562 17.394531 11.628906 C 17.417969 11.671875 17.445312 11.714844 17.464844 11.761719 C 17.488281 11.820312 17.507812 11.878906 17.523438 11.941406 C 17.535156 11.972656 17.546875 12.007812 17.558594 12.042969 C 17.566406 12.085938 17.570312 12.132812 17.578125 12.179688 C 17.585938 12.234375 17.59375 12.292969 17.59375 12.347656 C 17.597656 12.390625 17.59375 12.433594 17.59375 12.476562 C 17.589844 12.535156 17.585938 12.59375 17.574219 12.652344 C 17.566406 12.695312 17.558594 12.738281 17.546875 12.78125 C 17.535156 12.839844 17.519531 12.894531 17.496094 12.945312 C 17.484375 12.984375 17.472656 13.023438 17.453125 13.058594 C 17.433594 13.101562 17.410156 13.140625 17.386719 13.183594 C 17.175781 13.546875 16.820312 13.8125 16.402344 13.929688 L 16.402344 11.601562 C 16.402344 11.378906 16.222656 11.199219 16 11.199219 C 15.78125 11.199219 15.601562 11.378906 15.601562 11.601562 L 15.601562 14 L 14.800781 14 L 14.800781 12 C 14.800781 11.777344 14.621094 11.601562 14.402344 11.601562 C 14.179688 11.601562 14 11.777344 14 12 L 14 14 L 13.199219 14 L 13.199219 12.398438 C 13.199219 12.179688 13.019531 12 12.800781 12 C 12.578125 12 12.402344 12.179688 12.402344 12.398438 L 12.402344 14 L 11.601562 14 L 11.601562 12.398438 C 11.601562 12.179688 11.421875 12 11.199219 12 C 10.980469 12 10.800781 12.179688 10.800781 12.398438 L 10.800781 14 L 10 14 L 10 12 C 10 11.777344 9.820312 11.601562 9.601562 11.601562 C 9.378906 11.601562 9.199219 11.777344 9.199219 12 L 9.199219 14 L 8.402344 14 L 8.402344 11.601562 C 8.402344 11.378906 8.222656 11.199219 8 11.199219 C 7.78125 11.199219 7.601562 11.378906 7.601562 11.601562 L 7.601562 13.929688 C 7.179688 13.8125 6.824219 13.546875 6.613281 13.183594 C 6.589844 13.140625 6.566406 13.101562 6.546875 13.058594 C 6.527344 13.023438 6.515625 12.984375 6.503906 12.945312 C 6.484375 12.894531 6.464844 12.839844 6.453125 12.78125 C 6.441406 12.738281 6.433594 12.695312 6.425781 12.652344 C 6.417969 12.59375 6.410156 12.535156 6.410156 12.476562 C 6.40625 12.433594 6.40625 12.390625 6.40625 12.347656 C 6.40625 12.292969 6.414062 12.234375 6.421875 12.179688 C 6.429688 12.132812 6.433594 12.085938 6.445312 12.042969 C 6.453125 12.007812 6.464844 11.972656 6.476562 11.941406 C 6.492188 11.878906 6.511719 11.820312 6.535156 11.761719 C 6.558594 11.714844 6.582031 11.671875 6.605469 11.628906 C 6.621094 11.601562 6.636719 11.574219 6.652344 11.546875 C 6.679688 11.503906 6.710938 11.460938 6.746094 11.421875 C 6.769531 11.390625 6.792969 11.359375 6.816406 11.332031 Z M 22 11.035156 C 22 11.125 21.925781 11.199219 21.835938 11.199219 L 18.074219 11.199219 C 17.917969 10.925781 17.707031 10.691406 17.457031 10.5 C 17.457031 10.496094 17.453125 10.496094 17.453125 10.492188 C 17.375 10.433594 17.289062 10.378906 17.203125 10.328125 C 17.199219 10.324219 17.199219 10.324219 17.195312 10.324219 C 17.027344 10.222656 16.839844 10.144531 16.648438 10.089844 C 16.628906 10.085938 16.609375 10.082031 16.59375 10.078125 C 16.515625 10.058594 16.441406 10.042969 16.363281 10.03125 C 16.339844 10.027344 16.316406 10.023438 16.292969 10.019531 C 16.195312 10.007812 16.097656 10 16 10 L 8 10 C 7.902344 10 7.804688 10.007812 7.707031 10.019531 C 7.683594 10.023438 7.660156 10.027344 7.636719 10.03125 C 7.558594 10.042969 7.484375 10.058594 7.40625 10.078125 C 7.390625 10.082031 7.371094 10.085938 7.351562 10.089844 C 7.15625 10.144531 6.972656 10.222656 6.804688 10.324219 C 6.800781 10.324219 6.796875 10.324219 6.796875 10.328125 C 6.710938 10.378906 6.625 10.433594 6.546875 10.492188 C 6.542969 10.496094 6.542969 10.496094 6.539062 10.5 C 6.292969 10.691406 6.082031 10.925781 5.925781 11.199219 L 2.164062 11.199219 C 2.074219 11.199219 2 11.125 2 11.035156 L 2 9.765625 C 2 9.671875 2.074219 9.601562 2.164062 9.601562 L 21.835938 9.601562 C 21.925781 9.601562 22 9.671875 22 9.765625 Z M 22 11.035156"/>
    <path d="M6.398438 19.601562C7.28125 19.601562 8 18.882812 8 18 8 17.117188 7.28125 16.398438 6.398438 16.398438 5.519531 16.398438 4.800781 17.117188 4.800781 18 4.800781 18.882812 5.519531 19.601562 6.398438 19.601562zM6.398438 17.199219C6.839844 17.199219 7.199219 17.558594 7.199219 18 7.199219 18.441406 6.839844 18.800781 6.398438 18.800781 5.957031 18.800781 5.601562 18.441406 5.601562 18 5.601562 17.558594 5.957031 17.199219 6.398438 17.199219zM17.601562 16.398438C16.71875 16.398438 16 17.117188 16 18 16 18.882812 16.71875 19.601562 17.601562 19.601562 18.480469 19.601562 19.199219 18.882812 19.199219 18 19.199219 17.117188 18.480469 16.398438 17.601562 16.398438zM17.601562 18.800781C17.160156 18.800781 16.800781 18.441406 16.800781 18 16.800781 17.558594 17.160156 17.199219 17.601562 17.199219 18.042969 17.199219 18.398438 17.558594 18.398438 18 18.398438 18.441406 18.042969 18.800781 17.601562 18.800781zM14 19.601562C14.882812 19.601562 15.601562 18.882812 15.601562 18 15.601562 17.117188 14.882812 16.398438 14 16.398438 13.117188 16.398438 12.398438 17.117188 12.398438 18 12.398438 18.882812 13.117188 19.601562 14 19.601562zM14 17.199219C14.441406 17.199219 14.800781 17.558594 14.800781 18 14.800781 18.441406 14.441406 18.800781 14 18.800781 13.558594 18.800781 13.199219 18.441406 13.199219 18 13.199219 17.558594 13.558594 17.199219 14 17.199219zM10 19.601562C10.882812 19.601562 11.601562 18.882812 11.601562 18 11.601562 17.117188 10.882812 16.398438 10 16.398438 9.117188 16.398438 8.398438 17.117188 8.398438 18 8.398438 18.882812 9.117188 19.601562 10 19.601562zM10 17.199219C10.441406 17.199219 10.800781 17.558594 10.800781 18 10.800781 18.441406 10.441406 18.800781 10 18.800781 9.558594 18.800781 9.199219 18.441406 9.199219 18 9.199219 17.558594 9.558594 17.199219 10 17.199219zM18.085938 20L5.914062 20C5.519531 20 5.199219 20.320312 5.199219 20.714844L5.199219 21.683594C5.199219 22.078125 5.519531 22.398438 5.914062 22.398438L18.085938 22.398438C18.480469 22.398438 18.800781 22.078125 18.800781 21.683594L18.800781 20.714844C18.800781 20.320312 18.480469 20 18.085938 20zM18 21.601562L6 21.601562 6 20.800781 18 20.800781zM14.398438 6.800781L13.601562 6.800781C13.378906 6.800781 13.199219 6.980469 13.199219 7.199219 13.199219 7.421875 13.378906 7.601562 13.601562 7.601562L14.398438 7.601562C14.621094 7.601562 14.800781 7.421875 14.800781 7.199219 14.800781 6.980469 14.621094 6.800781 14.398438 6.800781zM12 6.800781L9.199219 6.800781C8.980469 6.800781 8.800781 6.980469 8.800781 7.199219 8.800781 7.421875 8.980469 7.601562 9.199219 7.601562L12 7.601562C12.222656 7.601562 12.398438 7.421875 12.398438 7.199219 12.398438 6.980469 12.222656 6.800781 12 6.800781zM7.316406 6.914062C7.242188 6.992188 7.199219 7.097656 7.199219 7.199219 7.199219 7.308594 7.242188 7.40625 7.316406 7.484375 7.390625 7.554688 7.496094 7.601562 7.601562 7.601562 7.703125 7.601562 7.808594 7.554688 7.882812 7.484375 7.957031 7.40625 8 7.304688 8 7.199219 8 7.097656 7.957031 6.992188 7.882812 6.914062 7.734375 6.769531 7.464844 6.769531 7.316406 6.914062zM7.316406 6.914062"/>
</svg>

<svg xmlns="http://www.w3.org/2000/svg" width="32" height="32" viewBox="0 0 24 24">
    <path d="M23.602 8a.401.401 0 0 0-.403.398V10h-.398v-.234a.964.964 0 0 0-.965-.965h-2.234V0H4.398v8.8H2.164a.964.964 0 0 0-.965.966V10H.801V8.398a.401.401 0 0 0-.801 0v4a.401.401 0 1 0 .8 0v-1.597h.4v.234c0 .531.433.965.964.965h.234v1.602H.801v2H.398v.796H2v-.796h-.398v-1.204h.796v4c0 .747.512 1.368 1.204 1.543v2.614c0 .797.648 1.445 1.445 1.445h13.906c.797 0 1.445-.648 1.445-1.445V19.94a1.592 1.592 0 0 0 1.204-1.543V12h.234a.967.967 0 0 0 .965-.965v-.234h.398v1.597a.401.401 0 0 0 .8 0l.001-4A.4.4 0 0 0 23.602 8zM5.199.8h13.602v8H5.199zm14.403 21.755a.649.649 0 0 1-.649.644H5.047a.649.649 0 0 1-.649-.644V16h15.204zm1.199-4.157c0 .297-.16.555-.403.696v-3.895H3.602v3.895a.801.801 0 0 1-.403-.696V12h2.434c0 .016-.004.035-.004.05-.008.055-.016.11-.02.169-.004.035-.004.07-.004.105-.003.028-.003.051-.003.074 0 .028 0 .051.003.075a2.457 2.457 0 0 0 .023.277l.013.078c.011.067.027.133.046.2 0 .011.004.027.008.042a2.3 2.3 0 0 0 .133.344c.008.016.012.027.02.04A2.398 2.398 0 0 0 8 14.8h8c.945 0 1.762-.551 2.152-1.348.008-.012.012-.023.02-.039a2.3 2.3 0 0 0 .129-.336c0-.004.004-.008.004-.008.004-.015.004-.027.008-.043.019-.066.035-.132.046-.199l.012-.078c.008-.059.016-.113.02-.168.004-.039.004-.074.004-.11a.448.448 0 0 0 .003-.074c0-.023 0-.046-.003-.074 0-.035 0-.07-.004-.105-.004-.059-.012-.114-.02-.168 0-.016-.004-.035-.004-.051h2.434zM6.816 11.332l.106-.105c.031-.032.07-.059.105-.086.035-.028.067-.059.106-.082.066-.043.14-.082.215-.118l.097-.035a1.38 1.38 0 0 1 .18-.058c.031-.004.059-.012.09-.02A1.72 1.72 0 0 1 8 10.801h8a1.72 1.72 0 0 1 .375.047c.063.015.121.035.18.058.03.012.066.024.097.035.075.036.149.075.215.118.04.023.07.054.106.082.039.027.074.054.105.086.04.03.07.07.106.105.023.027.05.059.074.09.031.039.062.082.09.125.02.027.03.055.047.082.023.043.05.086.07.133.023.058.043.117.058.18.012.03.024.066.036.101.007.043.011.09.02.137.007.054.015.113.015.168.004.043 0 .086 0 .129a1.344 1.344 0 0 1-.02.175c-.008.043-.015.086-.027.13a.73.73 0 0 1-.05.163.565.565 0 0 1-.044.114c-.02.043-.043.082-.066.125-.211.363-.567.629-.985.746v-2.328a.401.401 0 0 0-.8 0V14H14.8v-2a.398.398 0 0 0-.399-.398A.398.398 0 0 0 14 12v2h-.8v-1.602a.398.398 0 1 0-.797 0V14h-.801v-1.602a.401.401 0 0 0-.801 0V14H10v-2a.398.398 0 0 0-.398-.398.398.398 0 0 0-.403.398v2h-.797v-2.398a.401.401 0 0 0-.8 0v2.328a1.64 1.64 0 0 1-.989-.746c-.023-.043-.047-.082-.066-.125a.565.565 0 0 1-.043-.114c-.02-.05-.04-.105-.05-.164-.013-.043-.02-.086-.028-.129-.008-.058-.016-.117-.016-.175-.004-.043-.004-.086-.004-.13 0-.054.008-.113.016-.167.008-.047.012-.094.023-.137a.772.772 0 0 1 .032-.102 1.38 1.38 0 0 1 .058-.18l.07-.132.047-.082a.949.949 0 0 1 .094-.125c.024-.031.047-.063.07-.09zM22 11.035c0 .09-.074.164-.164.164h-3.762a2.35 2.35 0 0 0-.617-.699c0-.004-.004-.004-.004-.008a2.757 2.757 0 0 0-.25-.164c-.004-.004-.004-.004-.008-.004a2.265 2.265 0 0 0-.547-.234 1.27 1.27 0 0 1-.054-.012 2.41 2.41 0 0 0-.23-.047l-.071-.011A2.46 2.46 0 0 0 16 10H8a2.46 2.46 0 0 0-.293.02l-.07.011a2.41 2.41 0 0 0-.23.047 1.27 1.27 0 0 1-.055.012 2.2 2.2 0 0 0-.547.234c-.004 0-.008 0-.008.004-.086.05-.172.106-.25.164l-.008.008a2.393 2.393 0 0 0-.613.7H2.164A.165.165 0 0 1 2 11.034v-1.27c0-.093.074-.163.164-.163h19.672c.09 0 .164.07.164.164zm0 0"/>
    <path d="M6.398 19.602C7.281 19.602 8 18.882 8 18c0-.883-.719-1.602-1.602-1.602a1.603 1.603 0 0 0 0 3.203zm0-2.403a.802.802 0 0 1 0 1.602.799.799 0 0 1-.796-.801c0-.441.355-.8.796-.8zm0 0M17.602 16.398c-.883 0-1.602.72-1.602 1.602 0 .883.719 1.602 1.602 1.602a1.603 1.603 0 0 0 0-3.203zm0 2.403a.802.802 0 0 1 0-1.602c.441 0 .796.36.796.801 0 .441-.355.8-.796.8zm0 0M14 19.602c.883 0 1.602-.72 1.602-1.602 0-.883-.72-1.602-1.602-1.602-.883 0-1.602.72-1.602 1.602 0 .883.72 1.602 1.602 1.602zm0-2.403a.802.802 0 0 1 0 1.602.802.802 0 0 1 0-1.602zm0 0M10 19.602c.883 0 1.602-.72 1.602-1.602 0-.883-.72-1.602-1.602-1.602-.883 0-1.602.72-1.602 1.602 0 .883.72 1.602 1.602 1.602zm0-2.403a.802.802 0 0 1 0 1.602.802.802 0 0 1 0-1.602zm0 0M18.086 20H5.914a.715.715 0 0 0-.715.715v.969c0 .394.32.714.715.714h12.172c.394 0 .715-.32.715-.714v-.97a.715.715 0 0 0-.715-.714zM18 21.602H6V20.8h12zm0 0M14.398 6.8h-.796a.401.401 0 1 0 0 .802h.796a.401.401 0 0 0 0-.8zm0 0M12 6.8H9.2a.4.4 0 0 0 0 .802H12c.223 0 .398-.18.398-.403A.398.398 0 0 0 12 6.801zm0 0M7.316 6.914A.423.423 0 0 0 7.2 7.2c0 .11.043.207.117.285.075.07.18.118.286.118a.424.424 0 0 0 .28-.118A.416.416 0 0 0 8 7.2a.423.423 0 0 0-.117-.285.424.424 0 0 0-.567 0zm0 0"/>
</svg>
